X:0398
T:Duke of Perth's Reel.
M:C|
L:1/8
Q:1/2=104
I: :: ::
Z:Jack Campin * www.campin.me.uk * 2009
K:G
B|G/A/B/c/ dB gBdB|gBdB aAAB|(G/A/B/c/) dB gBdB|cAdc BGG:|
f|gage        abaf|gage beef| gage         abaf|gdec BGG:|

